proprietary/assets/icons/gebruiksvoorwerpen/pompfles-en-pot-met-deksel.svg

<svg height="64" viewBox="0 0 64 64" width="64" xmlns="http://www.w3.org/2000/svg"><path d="m0 0h64v64h-64z" fill="none"/><path d="m51.436 37.3015c-.7869-.3438-1.2036-1.0513-1.4258-1.794l-5.7451-1.1434c-.3173-.1018-.2708-.3079-.25-.3641h7.9849v-5.3387c0-.9175-.813-1.6613-1.8159-1.6613h-14.3682c-1.0029 0-1.8159.7438-1.8159 1.6613v5.3286h2.2234c-.0353 1.0775-.3185 2.726-1.6594 3.3116-2.564 1.1198-2.5027 1.2482-2.5027 4.6985v18c.0042 2.1313 7.9143 1.99 10.9387 1.99s10.9244.1413 10.9286-1.99c0 0 0-17.3585 0-18 0-3.4503.0714-3.5787-2.4926-4.6985zm-1.436 14.6985h-14v-10h14z"/><path d="m35.8159 25h3.2588l-7.0747-7v-6c0-.5518-.4482-1-1-1h-1v-4h3c.5522 0 1-.4478 1-1v-1.5049c0-.9434-.6506-1.7602-1.5735-1.9556-1.2395-.2625-3.2905-.5395-6.4264-.5395-4.892 0-11.8627 1.3482-14.2008 1.8307-.4653.0961-.7993.5047-.7993.9797v1.1896c0 .5522.4478 1 1 1h12v2.8103l4.1482.8256c.3171.1018.2708.3079.2499.3641h-5.3981c-.5518 0-1 .4482-1 1v6l-7.3279 7.3546c-1.1281 1.1281-1.7079 2.7009-1.5566 4.289l2.4362 25.4365c.0505.5112.4806.9009.9943.9009h13.454v-13.981c0-3.0415.0992-4.2273 2-5.5699v-7.7689c0-2.0187 1.7119-3.6612 3.8159-3.6612z"/></svg>

<?xml version="1.0" encoding="utf-8"?>
<!-- Generator: Adobe Illustrator 19.1.0, SVG Export Plug-In . SVG Version: 6.00 Build 0)  -->
<svg version="1.2" baseProfile="tiny" xmlns="http://www.w3.org/2000/svg" xmlns:xlink="http://www.w3.org/1999/xlink" x="0px"
	 y="0px" width="64px" height="64px" viewBox="0 0 64 64" xml:space="preserve">
<g id="Box">
	<rect fill="none" width="64" height="64"/>
</g>
<g id="Icon">
	<g>
		<path d="M51.436,37.3015c-0.7869-0.3438-1.2036-1.0513-1.4258-1.794l-5.7451-1.1434c-0.3173-0.1018-0.2708-0.3079-0.25-0.3641H52
			v-5.3387C52,27.7438,51.187,27,50.1841,27H35.8159C34.813,27,34,27.7438,34,28.6613v5.3286h2.2234
			c-0.0353,1.0775-0.3185,2.726-1.6594,3.3116C32,38.4213,32.0613,38.5497,32.0613,42c0,0.6415,0,18,0,18
			c0.0042,2.1313,7.9143,1.99,10.9387,1.99S53.9244,62.1313,53.9286,60c0,0,0-17.3585,0-18
			C53.9286,38.5497,54,38.4213,51.436,37.3015z M50,52H36V42h14V52z"/>
		<path d="M35.8159,25h3.2588L32,18v-6c0-0.5518-0.4482-1-1-1h-1V7h3c0.5522,0,1-0.4478,1-1V4.4951
			c0-0.9434-0.6506-1.7602-1.5735-1.9556C31.187,2.277,29.136,2,26.0001,2c-4.892,0-11.8627,1.3482-14.2008,1.8307
			C11.334,3.9268,11,4.3354,11,4.8104V6c0,0.5522,0.4478,1,1,1h12v2.8103l4.1482,0.8256c0.3171,0.1018,0.2708,0.3079,0.2499,0.3641
			H23c-0.5518,0-1,0.4482-1,1v6l-7.3279,7.3546c-1.1281,1.1281-1.7079,2.7009-1.5566,4.289l2.4362,25.4365
			c0.0505,0.5112,0.4806,0.9009,0.9943,0.9009H30V42c0-3.0415,0.0992-4.2273,2-5.5699v-7.7689C32,26.6425,33.7119,25,35.8159,25z"/>
	</g>
</g>
</svg>
